assets/icons/hashtag.svg

<svg width="20" height="18" viewBox="0 0 20 18" fill="none" xmlns="http://www.w3.org/2000/svg">
<path d="M3.41012 18.0005L4.12012 14.0005H0.120117L0.470117 12.0005H4.47012L5.53012 6.00049H1.53012L1.88012 4.00049H5.88012L6.59012 0.000488281H8.59012L7.88012 4.00049H13.8801L14.5901 0.000488281H16.5901L15.8801 4.00049H19.8801L19.5301 6.00049H15.5301L14.4701 12.0005H18.4701L18.1201 14.0005H14.1201L13.4101 18.0005H11.4101L12.1201 14.0005H6.12012L5.41012 18.0005H3.41012ZM7.53012 6.00049L6.47012 12.0005H12.4701L13.5301 6.00049H7.53012Z" fill="white"/>
</svg>

<svg xmlns="http://www.w3.org/2000/svg" width="20" height="18" fill="none" viewBox="0 0 20 18"><path fill="#fff" d="m3.41 18 .71-4h-4l.35-2h4l1.06-6h-4l.35-2h4l.71-4h2l-.71 4h6l.71-4h2l-.71 4h4l-.35 2h-4l-1.06 6h4l-.35 2h-4l-.71 4h-2l.71-4h-6l-.71 4zM7.53 6l-1.06 6h6l1.06-6z"/></svg>
